**harmony	**harte	**kern	**silbe	**rhyme	**timestamp	**phrase
*M4/4	*M4/4	*ICvox	*	*	*	*
*	*	*VRlead*VRriffing	*	*	*	*
*	*	*Hstimme	*	*	*	*
*C:	*C:	*C:	*	*	*	*
*	*	*M4/4	*	*	*	*
*	*	*clefG2	*	*	*	*
1r;	1r	r;	.	.	0	.
=1	=1	=1	=1	=1	=1	=1
*>Letter>A	*>Letter>A	*>Letter>A	*>Letter>A	*>Letter>A	*>Letter>A	*>Letter>A
*>Label>Introa	*>Label>Introa	*>Label>Introa	*>Label>Introa	*>Label>Introa	*>Label>Introa	*>Label>Introa
1N	N	1r	.	.	0.116	newline
=2	=2	=2	=2	=2	=2	=2
1N	N	1r	.	.	2.967	.
=3	=3	=3	=3	=3	=3	=3
*>Letter>B	*>Letter>B	*>Letter>B	*>Letter>B	*>Letter>B	*>Letter>B	*>Letter>B
*>Label>Introb	*>Label>Introb	*>Label>Introb	*>Label>Introb	*>Label>Introb	*>Label>Introb	*>Label>Introb
2Amm	A:min7	1r	.	.	5.817	newline
2GM	G:maj/3	.	.	.	7.173	.
=4	=4	=4	=4	=4	=4	=4
2CMM	C:maj7	1r	.	.	8.53	.
2FM	F:maj	.	.	.	9.886	.
=5	=5	=5	=5	=5	=5	=5
2Amm	A:min7	1r	.	.	11.242	newline
2GM	G:maj/3	.	.	.	12.611	.
=6	=6	=6	=6	=6	=6	=6
2CMM	C:maj7	2r	.	.	13.98	.
2FM	F:maj	16e	You	.	15.349	.
.	.	8.d	_	.	.	.
.	.	8d	with	.	.	.
.	.	8c	the	.	.	.
=7	=7	=7	=7	=7	=7	=7
*>Letter>C	*>Letter>C	*>Letter>C	*>Letter>C	*>Letter>C	*>Letter>C	*>Letter>C
*>Label>Verse	*>Label>Verse	*>Label>Verse	*>Label>Verse	*>Label>Verse	*>Label>Verse	*>Label>Verse
2Amm	A:min7	2c	sad	.	16.718	newline
2GM	G:maj/3	4G	heart,	A	18.11	.
.	.	4r	.	.	.	.
=8	=8	=8	=8	=8	=8	=8
2CM	C:maj	8e	don't	.	19.501	.
.	.	8f	be	.	.	.
.	.	8g	dis-	.	.	.
.	.	[8g	-cour-	(B	.	.
2CM	C:maj/3	8g]	_	.	20.892	.
.	.	8f	-aged	b)	.	.
.	.	8e	Oh	.	.	.
.	.	8d	I	.	.	.
=9	=9	=9	=9	=9	=9	=9
2FM	F:maj(9)	8d	re-	.	22.284	.
.	.	8e	-a-	.	.	.
.	.	4.c	-lize	.	.	.
2FM	F:maj	.	.	.	23.675	.
.	.	8G	it's	.	.	.
.	.	4r	.	.	.	.
=10	=10	=10	=10	=10	=10	=10
2Am	A:min	8e-	hard	A	25.067	.
.	.	8d	to	.	.	.
.	.	8d	take	.	.	.
.	.	8d	cour-	(B	.	.
2GM	G:maj	8c	-age	b)	26.458	.
.	.	4r	.	.	.	.
.	.	16c	In	.	.	.
.	.	16c	a	.	.	.
=11	=11	=11	=11	=11	=11	=11
2CM	C:maj	4c	world	.	27.85	newline
.	.	8r	.	.	.	.
.	.	16c	full	.	.	.
.	.	16c	of	.	.	.
2Dm	D:min	8d	peo-	.	29.237	.
.	.	16c	-ple	.	.	.
.	.	8.d	_	.	.	.
.	.	8r	.	.	.	.
=12	=12	=12	=12	=12	=12	=12
2CM	C:maj/3	8c	you	.	30.623	.
.	.	8e	can	.	.	.
.	.	8f	lose	.	.	.
.	.	8g	sight	.	.	.
2FM	F:maj	8g	of	.	32.01	.
.	.	8a	it	.	.	.
.	.	8c	all	C	.	.
.	.	16c	And	.	.	.
.	.	16c	the	.	.	.
=13	=13	=13	=13	=13	=13	=13
2Am	A:min	8d	dark-	.	33.397	.
.	.	8d	-ness	.	.	.
.	.	8d	so	.	.	.
.	.	8d	in-	.	.	.
2GM	G:maj	8d	-side	.	34.784	.
.	.	8c	you,	.	.	.
.	.	8c	make	.	.	.
.	.	8c	you	.	.	.
=14	=14	=14	=14	=14	=14	=14
2FM	F:maj/5	8c	feel	.	36.171	.
.	.	[8c	so	.	.	.
.	.	8c]	_	.	.	.
.	.	8c	small	C	.	.
2CM	C:maj	8r	.	.	37.558	.
.	.	16c	But	.	.	.
.	.	16c	I	.	.	.
.	.	8e	see	.	.	.
.	.	8g	your	.	.	.
=15	=15	=15	=15	=15	=15	=15
*>Letter>D	*>Letter>D	*>Letter>D	*>Letter>D	*>Letter>D	*>Letter>D	*>Letter>D
*>Label>Chorus	*>Label>Chorus	*>Label>Chorus	*>Label>Chorus	*>Label>Chorus	*>Label>Chorus	*>Label>Chorus
2FM	F:maj	4.a	true	D	38.944	newline
.	.	[8a	co-	.	.	.
2CM	C:maj	8a]	_	.	40.324	.
.	.	[8g	-lors	.	.	.
.	.	8g]	_	.	.	.
.	.	[8e	shi-	.	.	.
=16	=16	=16	=16	=16	=16	=16
2GM	G:sus4	8e]	_	.	41.704	.
.	.	8d	-ning	.	.	.
.	.	[8e	through	D	.	.
.	.	8e]	_	.	.	.
2GM	G:maj	8r	.	.	43.083	.
.	.	8c	I	.	.	.
.	.	8e	see	.	.	.
.	.	8g	your	.	.	.
=17	=17	=17	=17	=17	=17	=17
2FM	F:maj	4.a	true	D	44.463	newline
.	.	8a	co-	.	.	.
2CM	C:maj/3	8g	_	.	45.858	.
.	.	8g	-lors,	.	.	.
.	.	8r	.	.	.	.
.	.	8c	and	.	.	.
=18	=18	=18	=18	=18	=18	=18
2FM	F:maj	8a	that's	.	47.252	.
.	.	8a	why	.	.	.
.	.	8a	I	.	.	.
.	.	[8a	lo-	.	.	.
2GM	G:maj	8a]	_	.	48.647	.
.	.	8g	-ve	.	.	.
.	.	8g	you	D	.	.
.	.	8g	So	.	.	.
=19	=19	=19	=19	=19	=19	=19
2FM	F:maj	8a	don't	.	50.041	.
.	.	8a	be	.	.	.
.	.	8g	a-	.	.	.
.	.	[8g	-fraid	.	.	.
2CM	C:maj	4g]	_	.	51.436	.
.	.	8r	.	.	.	.
.	.	8c	to	.	.	.
=20	=20	=20	=20	=20	=20	=20
2FM	F:maj	8d	let	.	52.83	.
.	.	8d	them	.	.	.
.	.	8c	_	.	.	.
.	.	[8d	show	E	.	.
2Am	A:min	8d]	_	.	54.225	.
.	.	8c	_	.	.	.
.	.	4c	your	.	.	.
=21	=21	=21	=21	=21	=21	=21
2FM	F:maj/5	4.c	true	D	55.619	newline
.	.	[8c	co-	.	.	.
2CM	C:maj	8c]	_	.	57.023	.
.	.	8c	-lors	.	.	.
.	.	4r	.	.	.	.
=22	=22	=22	=22	=22	=22	=22
2FM	F:maj/5	4.c	True	D	58.426	.
.	.	[8c	co-	.	.	.
2CM	C:maj	16c]	_	.	59.83	.
.	.	16d	_	.	.	.
.	.	8e	-lors	.	.	.
.	.	8r	.	.	.	.
.	.	8A	are	.	.	.
=23	=23	=23	=23	=23	=23	=23
1GM	G:sus4(9)	4..e	beau-	.	61.234	newline
.	.	16d	-ti-	.	.	.
.	.	4d	-ful	.	.	.
.	.	8c	like	.	.	.
.	.	8c	a	.	.	.
=24	=24	=24	=24	=24	=24	=24
*>Letter>B	*>Letter>B	*>Letter>B	*>Letter>B	*>Letter>B	*>Letter>B	*>Letter>B
*>Label>Trans	*>Label>Trans	*>Label>Trans	*>Label>Trans	*>Label>Trans	*>Label>Trans	*>Label>Trans
2Amm	A:min7	4..c	rain-	.	64.296	newline
.	.	16B	_	.	.	.
2GM	G:maj/3	4A	-bow	E	65.668	.
.	.	4r	.	.	.	.
=25	=25	=25	=25	=25	=25	=25
2CMM	C:maj7	1r	.	.	67.039	.
2FM	F:maj	.	.	.	68.411	.
=26	=26	=26	=26	=26	=26	=26
2Amm	A:min7	1r	.	.	69.782	newline
2GM	G:maj/3	.	.	.	71.203	.
=27	=27	=27	=27	=27	=27	=27
2CMM	C:maj7	2r	.	.	72.623	.
2FM	F:maj	16e	Show	E	74.044	.
.	.	[8.d	_	.	.	.
.	.	8d]	_	.	.	.
.	.	16c	me	.	.	.
.	.	16c	a	.	.	.
=28	=28	=28	=28	=28	=28	=28
*>Letter>C	*>Letter>C	*>Letter>C	*>Letter>C	*>Letter>C	*>Letter>C	*>Letter>C
*>Label>Verse	*>Label>Verse	*>Label>Verse	*>Label>Verse	*>Label>Verse	*>Label>Verse	*>Label>Verse
2Amm	A:min7	4.c	smile	.	75.465	newline
.	.	8G	then,	.	.	.
2GM	G:maj/3	2r	.	.	76.867	.
=29	=29	=29	=29	=29	=29	=29
2CM	C:maj	8e	don't	.	78.268	.
.	.	8f	be	.	.	.
.	.	8g	un-	.	.	.
.	.	[8g	-ha-	(F	.	.
2CM	C:maj/3	8g]	_	.	79.67	.
.	.	8f	-ppy	f)	.	.
.	.	8e	Can't	.	.	.
.	.	16d	re-	.	.	.
.	.	[16d	-mem-	.	.	.
=30	=30	=30	=30	=30	=30	=30
2FM	F:maj(9)	8d]	_	.	81.072	.
.	.	8e	-ber	.	.	.
.	.	4.c	when	.	.	.
2FM	F:maj	.	.	.	82.474	.
.	.	8A	I	.	.	.
.	.	4r	.	.	.	.
=31	=31	=31	=31	=31	=31	=31
2Am	A:min	8e-	last	.	83.875	.
.	.	8d	saw	.	.	.
.	.	8d	you	.	.	.
.	.	8e-	laugh-	(F	.	.
2GM	G:maj	8c	-ing	f)	85.277	.
.	.	4r	.	.	.	.
.	.	8c	If	.	.	.
=32	=32	=32	=32	=32	=32	=32
2CM	C:maj	8c	this	.	86.679	newline
.	.	8c	world	.	.	.
.	.	8c	makes	.	.	.
.	.	8c	you	.	.	.
2Dm	D:min	8d	cra-	.	88.088	.
.	.	8c	-zy	.	.	.
.	.	8c	and	.	.	.
.	.	8c	you've	.	.	.
=33	=33	=33	=33	=33	=33	=33
2CM	C:maj/3	8e	ta-	.	89.498	.
.	.	8f	-ken	.	.	.
.	.	8g	all	.	.	.
.	.	8g	you	.	.	.
2FM	F:maj	8a	can	.	90.907	.
.	.	8c	bear	G	.	.
.	.	8r	.	.	.	.
.	.	8c	You	.	.	.
=34	=34	=34	=34	=34	=34	=34
2Am	A:min	8e-	call	.	92.316	.
.	.	8d	me	.	.	.
.	.	8d	up	.	.	.
.	.	4r	.	.	.	.
2GM	G:maj	.	.	.	93.726	.
.	.	8G	be-	.	.	.
.	.	8G	-cause	.	.	.
.	.	8G	you	.	.	.
=35	=35	=35	=35	=35	=35	=35
2FM	F:maj/5	8c	know	.	95.135	.
.	.	8c	I'll	.	.	.
.	.	8c	be	.	.	.
.	.	8c	there	G	.	.
2CM	C:maj	8r	.	.	96.544	.
.	.	16c	And	.	.	.
.	.	16c	I	.	.	.
.	.	8e	see	.	.	.
.	.	8g	your	.	.	.
=36	=36	=36	=36	=36	=36	=36
*>Letter>D	*>Letter>D	*>Letter>D	*>Letter>D	*>Letter>D	*>Letter>D	*>Letter>D
*>Label>Chorus	*>Label>Chorus	*>Label>Chorus	*>Label>Chorus	*>Label>Chorus	*>Label>Chorus	*>Label>Chorus
2FM	F:maj	4.a	true	D	97.954	newline
.	.	[8a	co-	.	.	.
2CM	C:maj	8a]	_	.	99.349	.
.	.	[8g	-lors	.	.	.
.	.	8g]	_	.	.	.
.	.	[8a	shi-	.	.	.
=37	=37	=37	=37	=37	=37	=37
2GM	G:sus4	8a]	_	.	100.743	.
.	.	8g	-ning	.	.	.
.	.	[8a	through	D	.	.
.	.	8a]	_	.	.	.
2GM	G:maj	8r	.	.	102.138	.
.	.	8c	I	.	.	.
.	.	8e	see	.	.	.
.	.	8g	your	.	.	.
=38	=38	=38	=38	=38	=38	=38
2FM	F:maj	4.a	true	D	103.533	newline
.	.	8a	co-	.	.	.
2CM	C:maj/3	8g	_	.	104.94	.
.	.	8g	-lors,	.	.	.
.	.	8r	.	.	.	.
.	.	8c	and	.	.	.
=39	=39	=39	=39	=39	=39	=39
2FM	F:maj	8a	that's	.	106.347	.
.	.	8a	why	.	.	.
.	.	8a	I	.	.	.
.	.	[8a	lo-	.	.	.
2GM	G:maj	8a]	_	.	107.753	.
.	.	8g	-ve	.	.	.
.	.	8g	you	D	.	.
.	.	8g	So	.	.	.
=40	=40	=40	=40	=40	=40	=40
2FM	F:maj	8cc	don't	.	109.16	.
.	.	8cc	be	.	.	.
.	.	8a	a-	.	.	.
.	.	[8cc	-fraid	.	.	.
2CM	C:maj	4cc]	_	.	110.567	.
.	.	8r	.	.	.	.
.	.	8e	to	.	.	.
=41	=41	=41	=41	=41	=41	=41
2FM	F:maj	[8d	let	.	111.974	.
.	.	8d]	_	.	.	.
.	.	8c	it	.	.	.
.	.	[8d	show,	E	.	.
2Am	A:min	8d]	_	.	113.38	.
.	.	8c	_	.	.	.
.	.	4c	your	.	.	.
=42	=42	=42	=42	=42	=42	=42
2FM	F:maj/5	4.c	true	.	114.787	newline
.	.	[8c	co-	.	.	.
2CM	C:maj	8c]	_	.	116.185	.
.	.	8A	-lors	.	.	.
.	.	4r	.	.	.	.
=43	=43	=43	=43	=43	=43	=43
2FM	F:maj/5	4.c	True	.	117.583	.
.	.	[8c	co-	.	.	.
2CM	C:maj	16c]	_	.	118.981	.
.	.	16d	_	.	.	.
.	.	8e	-lors	.	.	.
.	.	8r	.	.	.	.
.	.	8A	are	.	.	.
=44	=44	=44	=44	=44	=44	=44
1GM	G:sus4(9)	4..e	beau-	.	120.378	newline
.	.	16d	-ti-	.	.	.
.	.	4d	-ful	.	.	.
.	.	8c	like	.	.	.
.	.	8c	a	.	.	.
=45	=45	=45	=45	=45	=45	=45
*>Letter>B	*>Letter>B	*>Letter>B	*>Letter>B	*>Letter>B	*>Letter>B	*>Letter>B
*>Label>Trans	*>Label>Trans	*>Label>Trans	*>Label>Trans	*>Label>Trans	*>Label>Trans	*>Label>Trans
2Amm	A:min7	4.c	rain-	.	123.447	newline
.	.	8B	_	.	.	.
2GM	G:maj/3	4A	-bow	E	124.821	.
.	.	4r	.	.	.	.
=46	=46	=46	=46	=46	=46	=46
2CMM	C:maj7	1r	.	.	126.195	.
2FM	F:maj	.	.	.	127.569	.
=47	=47	=47	=47	=47	=47	=47
2Amm	A:min7	1r	.	.	128.943	newline
2GM	G:maj/3	.	.	.	130.309	.
=48	=48	=48	=48	=48	=48	=48
2CMM	C:maj7	2r	.	.	131.675	.
2FM	F:maj	[2e	Ooh	.	133.041	.
=49	=49	=49	=49	=49	=49	=49
*>Letter>C	*>Letter>C	*>Letter>C	*>Letter>C	*>Letter>C	*>Letter>C	*>Letter>C
*>Label>Verse	*>Label>Verse	*>Label>Verse	*>Label>Verse	*>Label>Verse	*>Label>Verse	*>Label>Verse
2Amm	A:min7	2e_	_	.	134.407	newline
2GM	G:maj/3	4.e]	_	.	135.783	.
.	.	8r	.	.	.	.
=50	=50	=50	=50	=50	=50	=50
2CM	C:maj	2c	Ah	.	137.158	.
2CM	C:maj/3	2r	.	.	138.534	.
=51	=51	=51	=51	=51	=51	=51
2FM	F:maj(9)	8r	.	.	139.909	.
.	.	8~c	Can't	.	.	.
.	.	16~c	re-	.	.	.
.	.	8~c	-mem-	.	.	.
.	.	16~c	-ber	.	.	.
2FM	F:maj	4r	.	.	141.285	.
.	.	16~c	when	.	.	.
.	.	8.~c	I	.	.	.
=52	=52	=52	=52	=52	=52	=52
2Am	A:min	8~c	last	.	142.66	.
.	.	8~c	saw	.	.	.
.	.	8~c	you	.	.	.
.	.	8~c	laugh	F	.	.
2GM	G:maj	2r	.	.	144.036	.
=53	=53	=53	=53	=53	=53	=53
2CM	C:maj	8c	If	.	145.411	newline
.	.	8c	this	.	.	.
.	.	8c	world	.	.	.
.	.	8c	makes	.	.	.
2Dm	D:min	8d	you	.	146.798	.
.	.	8d	cra-	.	.	.
.	.	8c	-zy	.	.	.
.	.	8c	you've	.	.	.
=54	=54	=54	=54	=54	=54	=54
2CM	C:maj/3	8e	ta-	.	148.185	.
.	.	8f	-ken	.	.	.
.	.	8g	all	.	.	.
.	.	8g	you	.	.	.
2FM	F:maj	8a	can	.	149.572	.
.	.	8c	bear	G	.	.
.	.	8r	.	.	.	.
.	.	8c	You	.	.	.
=55	=55	=55	=55	=55	=55	=55
2Am	A:min	8e-	call	.	150.959	.
.	.	8d	me	.	.	.
.	.	8d	up	.	.	.
.	.	4r	.	.	.	.
2GM	G:maj	.	.	.	152.346	.
.	.	8G	be-	.	.	.
.	.	8G	-cause	.	.	.
.	.	8G	you	.	.	.
=56	=56	=56	=56	=56	=56	=56
2FM	F:maj/5	8c	know	.	153.733	.
.	.	8c	I'll	.	.	.
.	.	8c	be	.	.	.
.	.	8G	there	G	.	.
2CM	C:maj	8r	.	.	155.12	.
.	.	16c	And	.	.	.
.	.	16c	I	.	.	.
.	.	8e	see	.	.	.
.	.	8g	your	.	.	.
=57	=57	=57	=57	=57	=57	=57
*>Letter>D2	*>Letter>D2	*>Letter>D2	*>Letter>D2	*>Letter>D2	*>Letter>D2	*>Letter>D2
*>Label>Chorus	*>Label>Chorus	*>Label>Chorus	*>Label>Chorus	*>Label>Chorus	*>Label>Chorus	*>Label>Chorus
2FM	F:maj	4.a	true	D	156.506	newline
.	.	[8a	co-	.	.	.
2CM	C:maj	8a]	_	.	157.894	.
.	.	[8g	-lors	.	.	.
.	.	8g]	_	.	.	.
.	.	[8e	shi-	.	.	.
=58	=58	=58	=58	=58	=58	=58
2GM	G:sus4	8e]	_	.	159.282	.
.	.	8d	-ning	.	.	.
.	.	[8d	through	D	.	.
.	.	8d]	_	.	.	.
2GM	G:maj	8r	.	.	160.669	.
.	.	8c	I	.	.	.
.	.	8e	see	.	.	.
.	.	8g	your	.	.	.
=59	=59	=59	=59	=59	=59	=59
2FM	F:maj	4.a	true	D	162.057	newline
.	.	8a	co-	.	.	.
2CM	C:maj/3	8g	_	.	163.46	.
.	.	8g	-lors,	.	.	.
.	.	8r	.	.	.	.
.	.	8c	and	.	.	.
=60	=60	=60	=60	=60	=60	=60
2FM	F:maj	8a	that's	.	164.862	.
.	.	8a	why	.	.	.
.	.	8a	I	.	.	.
.	.	[8a	lo-	.	.	.
2GM	G:maj	8a]	_	.	166.265	.
.	.	8g	-ve	.	.	.
.	.	8g	you	D	.	.
.	.	8g	So	.	.	.
=61	=61	=61	=61	=61	=61	=61
2FM	F:maj	8cc	don't	.	167.668	.
.	.	8cc	be	.	.	.
.	.	8a	a-	.	.	.
.	.	[8cc	-fraid	.	.	.
2CM	C:maj	4cc]	_	.	169.071	.
.	.	8c	to	.	.	.
.	.	8r	.	.	.	.
=62	=62	=62	=62	=62	=62	=62
2FM	F:maj	8d	let	.	170.474	.
.	.	[8d	it	.	.	.
.	.	8d]	_	.	.	.
.	.	[8d	show	E	.	.
2Am	A:min	8d]	_	.	171.877	.
.	.	8c	_	.	.	.
.	.	8r	.	.	.	.
.	.	8c	your	.	.	.
=63	=63	=63	=63	=63	=63	=63
2FM	F:maj/5	4.c	true	D	173.279	newline
.	.	[8c	co-	.	.	.
2CM	C:maj	8c]	_	.	174.68	.
.	.	8c	-lors	.	.	.
.	.	4r	.	.	.	.
=64	=64	=64	=64	=64	=64	=64
2FM	F:maj/5	4.c	True	D	176.081	.
.	.	[8c	co-	.	.	.
2CM	C:maj	8c]	_	.	177.482	.
.	.	8c	-lors	.	.	.
.	.	4r	.	.	.	.
=65	=65	=65	=65	=65	=65	=65
2FM	F:maj/5	4.c	true	D	178.882	newline
.	.	[8c	co-	.	.	.
2CM	C:maj	8c]	_	.	180.259	.
.	.	8e	-lors	.	.	.
.	.	8g	are	.	.	.
.	.	[8a	shi-	.	.	.
=66	=66	=66	=66	=66	=66	=66
2GM	G:sus4	8a]	_	.	181.637	.
.	.	8g	-ning	.	.	.
.	.	[8a	through	D	.	.
.	.	8a]	_	.	.	.
2GM	G:maj	8r	.	.	183.014	.
.	.	8c	I	.	.	.
.	.	8e	see	.	.	.
.	.	8g	your	.	.	.
=67	=67	=67	=67	=67	=67	=67
2FM	F:maj	4.a	true	.	184.391	newline
.	.	8a	co-	.	.	.
2CM	C:maj	8g	_	.	185.787	.
.	.	8g	-lors	.	.	.
.	.	8r	.	.	.	.
.	.	8g	and	.	.	.
=68	=68	=68	=68	=68	=68	=68
2FM	F:maj	8a	that's	.	187.184	.
.	.	8a	why	.	.	.
.	.	8a	I	.	.	.
.	.	16a	lo-	.	.	.
.	.	16b-	_	.	.	.
4GM	G:sus4	8b-	_	.	188.581	.
.	.	8a	ve	.	.	.
4GM	G:maj	8g	you	D	189.279	.
.	.	8g	So	.	.	.
=69	=69	=69	=69	=69	=69	=69
2FM	F:maj	8cc	don't	.	189.977	newline
.	.	8cc	be	.	.	.
.	.	8a	a-	.	.	.
.	.	[8cc	-fraid	.	.	.
2CM	C:maj	4cc]	_	.	191.455	.
.	.	8r	.	.	.	.
.	.	8e	to	.	.	.
=70	=70	=70	=70	=70	=70	=70
2Emm	E:min7	8d	let	.	192.932	.
.	.	[8d	them	.	.	.
.	.	8d]	_	.	.	.
.	.	[8d	show	E	.	.
2Am	A:min	8d]	_	.	194.41	.
.	.	8c	_	.	.	.
.	.	8r	.	.	.	.
.	.	8c	your	.	.	.
=71	=71	=71	=71	=71	=71	=71
2FM	F:maj/5	4.c	true	.	195.887	newline
.	.	[8c	co-	.	.	.
2CM	C:maj	8c]	_	.	197.502	.
.	.	8c	-lors	.	.	.
.	.	4r	.	.	.	.
=72	=72	=72	=72	=72	=72	=72
2FM	F:maj/5	4.c	true	.	199.116	.
.	.	[8c	co-	.	.	.
2CM	C:maj	16c]	_	.	200.73	.
.	.	16d	_	.	.	.
.	.	8e	-lors	.	.	.
.	.	8r	.	.	.	.
.	.	8A	are	.	.	.
=73	=73	=73	=73	=73	=73	=73
1GM	G:sus4(9)	4..e	beau-	.	202.345	newline
.	.	16d	-ti-	.	.	.
.	.	4d;	-ful	.	.	.
.	.	8c	like	.	.	.
.	.	8c	a	.	.	.
=74	=74	=74	=74	=74	=74	=74
1r;	1r	4..c	rain-	.	205.914	.
.	.	16B	_	.	.	.
.	.	8A	_	.	.	.
.	.	[4.A	-bow	E	.	.
=75	=75	=75	=75	=75	=75	=75
*>Letter>B2	*>Letter>B2	*>Letter>B2	*>Letter>B2	*>Letter>B2	*>Letter>B2	*>Letter>B2
*>Label>Trans	*>Label>Trans	*>Label>Trans	*>Label>Trans	*>Label>Trans	*>Label>Trans	*>Label>Trans
2Amm	A:min7	1A]	_	.	209.482	newline
2GM	G:maj/3	.	.	.	210.558	.
=76	=76	=76	=76	=76	=76	=76
*M3/8	*M3/8	*M3/8	*	*	*	*
4.CMM	C:maj7	4.r	.	.	211.633	.
*>Letter>A2	*>Letter>A2	*>Letter>A2	*>Letter>A2	*>Letter>A2	*>Letter>A2	*>Letter>A2
*>Label>Outro	*>Label>Outro	*>Label>Outro	*>Label>Outro	*>Label>Outro	*>Label>Outro	*>Label>Outro
=77	=77	=77	=77	=77	=77	=77
*	*	*M4/4	*	*	*	*
1FM	F:maj	1r	.	.	212.708	newline
=78	=78	=78	=78	=78	=78	=78
1N	N	1r	.	.	213.514	.
=79	=79	=79	=79	=79	=79	=79
1N	N	1r	.	.	213.783	.
=80	=80	=80	=80	=80	=80	=80
1N	N	1r	.	.	216.681	.
1r;	1r	r;	.	.	225.375	.
1r;	1r	r;	.	.	228.222	.
*-	*-	*-	*-	*-	*-	*-
!!!BillboardChartDate: 1986/09/13
!!!BillboardPeak: 1
!!!BillboardWeeksOnChart: 20
!!!COC: Cyndi Lauper
!!!EMD: Emm chord should be major? Lots of 4. [8 2] rhythm needs to be added.
!!!EMD: Made fixes to "leadinstrument" spine, which had "guitar" throughout verses and choruses.
!!!ENC: Nathaniel Condit-Schultz
!!!EST: Awating manual error checking and editing.
!!!OTL: True Colors
!!!RDF**chordsym: original McGill chord annotation + (implied pitch class set, with bass pitch in first position)
!!!RDF**harmony: **recip + pitch class of root + harmonic quality
!!!RDF**leadinstrument: original McGill primary instrumentation annotation
!!!RDF**phrase: newline = linebreak in original McGill transcription
!!!RDF**timestamp: McGill audio timestamp in seconds
!!!RDT: 2017/01/12/
!!!SampleActualRank: 40
!!!SampleID#: 0803
!!!SampleTargetRank: 38
!!!MBID: 531c800f-ae39-4942-aeeb-05a44f1dcdcf
